!!!OTL: Graf und Nonne (Die Nonne) Egy magas hegy tetejeroel
!!!ARE: Europa, Osteuropa, Ungarn, Tata, Tatabanya
!!!YOR: 8, S. 105
!!    1976 aufgezeichnet
!!!SCT: Q2155p
!!!YEM: Copyright 1995, estate of Helmut Schaffrath.
**kern
*ICvox
*Ivox
*M6/8
*k[b-e-]
*g:
{8g
=1
8g
8g
8g
8b-
8a
8g
=2
4.dd
4r}
{8dd
=3
4gg
8gg
4ffn
8ee-
=4
4.dd
4r}
{8dd
=5
4dd
8dd
4dd
8a
=6
4.cc
4b-}
{8g
=7
4b-
8b-
4a
8a
=8
4.g
4r}
==
!!!AGN: Ballade, Standesunterschied, vergebliche Werbung, Liebe, Klage, Tod
!! Derselbe Informant wie in Q0155n. Ersten Taktstrich eingefuegt.
!!    Ungarische Fassung der Ballade.
!!!ONB: ESAC (Essen Associative Code) Database: BALLADE
!!!AMT: compound duple
!!!AIN: vox
!!!EED: Helmut Schaffrath
!!!EEV: 1.0
*-
